X: 332
M: 6/8
L: 1/8
K: G
dBG G2B | dB G2d | ecA ABA | fef g3 |\
dBG G2B | AFD D2c | BdB cAF | G3 G2 :|
g |\
g2a bge | f2g afd | ege dBG | F2G AFD |\
g2a bge | f2g afd | ege faf | g3- g2 ||
.G |\
g2a bge | f2g afd | ege dBG | ABG FED |\


